build/img/img-bullet-2.svg

<?xml version="1.0" encoding="UTF-8"?>
<svg width="63px" height="72px" viewBox="0 0 63 72" version="1.1" xmlns="http://www.w3.org/2000/svg" xmlns:xlink="http://www.w3.org/1999/xlink">
    <!-- Generator: Sketch 47.1 (45422) - http://www.bohemiancoding.com/sketch -->
    <title>bullet-2</title>
    <desc>Created with Sketch.</desc>
    <defs></defs>
    <g id="Symbols" stroke="none" stroke-width="1" fill="none" fill-rule="evenodd">
        <g id="bullet-2" fill-rule="nonzero" fill="#FFFFFF">
            <path d="M43.5231481,65.5911218 L34.0472222,65.5911218 C33.6064815,65.5911218 33.2759259,65.9229487 33.2759259,66.3653846 C33.2759259,66.8078205 33.6064815,67.1396474 34.0472222,67.1396474 L43.5231481,67.1396474 C43.9638889,67.1396474 44.2944444,66.8078205 44.2944444,66.3653846 C44.2944444,65.9229487 43.9638889,65.5911218 43.5231481,65.5911218 Z" id="Shape"></path>
            <rect id="Rectangle-path" x="31.1824074" y="4.09253205" width="11.4592593" height="1.65913462"></rect>
            <rect id="Rectangle-path" x="44.5148148" y="4.09253205" width="1.65277778" height="1.65913462"></rect>
            <path d="M14.875,0 L14.875,24.2233654 L12.6712963,24.2233654 L12.4509259,24.2233654 L12.4509259,24.2233654 C10.5777778,24.3339744 8.81481481,25.2188462 7.71296296,26.7673718 C7.16203704,27.5416346 6.28055556,27.9840705 5.28888889,27.9840705 L4.40740741,27.9840705 C4.40740741,27.9840705 4.29722222,27.8734615 4.29722222,27.8734615 C3.85648148,27.4310256 3.19537037,27.2098077 2.53425926,27.3204167 C1.87314815,27.3204167 1.65277778,27.4310256 1.32222222,27.4310256 C0.991666667,27.4310256 0.881481481,27.5416346 8.8817842e-16,27.5416346 L8.8817842e-16,29.2007692 C0.881481481,29.2007692 1.10185185,29.2007692 1.43240741,29.0901603 C1.65277778,29.0901603 1.87314815,28.9795513 2.53425926,28.9795513 C2.75462963,28.9795513 2.975,28.9795513 3.08518519,29.0901603 C3.30555556,29.2007692 3.30555556,29.3113782 3.30555556,29.3113782 L3.30555556,40.9253205 C3.30555556,41.0359295 3.30555556,41.1465385 3.19537037,41.1465385 C3.08518519,41.2571474 2.86481481,41.3677564 2.64444444,41.2571474 C1.87314815,41.2571474 1.65277778,41.1465385 1.65277778,41.1465385 C1.43240741,41.0359295 1.32222222,41.0359295 0.110185185,41.0359295 L0.110185185,42.6950641 C0.22037037,42.6950641 0.330555556,42.6950641 0.330555556,42.6950641 C0.771296296,42.6950641 0.991666667,42.6950641 0.991666667,42.6950641 C1.21203704,42.8056731 1.43240741,42.8056731 2.42407407,42.9162821 C2.42407407,42.9162821 2.53425926,42.9162821 2.53425926,42.9162821 C3.08518519,42.9162821 3.52592593,42.8056731 3.96666667,42.4738462 C4.29722222,42.4738462 5.39907407,42.5844551 5.95,42.9162821 C6.17037037,43.026891 6.28055556,43.1375 6.50092593,43.248109 C7.38240741,43.8011538 8.26388889,44.3541987 10.2472222,44.7966346 C11.1287037,45.0178526 12.4509259,45.0178526 13.662963,45.0178526 C13.9935185,45.0178526 14.3240741,45.0178526 14.6546296,45.0178526 L14.6546296,71.8958333 L62.475,71.8958333 L62.475,0 L14.875,0 Z M61.0425926,1.65913462 L61.0425926,8.51689103 L16.5277778,8.51689103 L16.5277778,1.65913462 L61.0425926,1.65913462 Z M10.7981481,43.248109 C9.14537037,42.9162821 8.26388889,42.3632372 7.49259259,41.9208013 C7.27222222,41.8101923 7.16203704,41.6995833 6.94166667,41.5889744 C6.28055556,41.1465385 5.50925926,41.0359295 4.95833333,40.9253205 C4.95833333,40.9253205 4.95833333,40.9253205 4.95833333,40.9253205 L4.95833333,29.7538141 L5.39907407,29.7538141 C6.94166667,29.7538141 8.26388889,28.9795513 9.14537037,27.7628526 C9.91666667,26.6567628 11.2388889,25.8825 12.6712963,25.8825 L17.6296296,25.8825 L17.7398148,25.8825 C18.2907407,25.8825 18.8416667,26.3249359 18.8416667,26.9885897 C18.8416667,27.5416346 18.4009259,28.0946795 17.7398148,28.0946795 L14.7648148,28.0946795 L14.7648148,29.7538141 L17.7398148,29.7538141 C17.85,29.7538141 18.0703704,29.7538141 18.1805556,29.7538141 L18.1805556,29.7538141 L29.3092593,29.7538141 C29.8601852,29.7538141 30.4111111,30.19625 30.4111111,30.8599038 C30.4111111,31.4129487 29.9703704,31.9659936 29.3092593,31.9659936 L24.2407407,31.9659936 L19.9435185,31.9659936 L18.1805556,31.9659936 L18.1805556,33.6251282 L19.9435185,33.6251282 L24.2407407,33.6251282 C24.7916667,33.6251282 25.3425926,34.0675641 25.3425926,34.7312179 C25.3425926,35.2842628 24.9018519,35.8373077 24.2407407,35.8373077 L23.4694444,35.8373077 L20.0537037,35.8373077 L18.5111111,35.8373077 L18.5111111,37.4964423 L20.0537037,37.4964423 L23.4694444,37.4964423 C24.0203704,37.4964423 24.5712963,37.9388782 24.5712963,38.6025321 C24.5712963,39.1555769 24.1305556,39.7086218 23.4694444,39.7086218 L21.8166667,39.7086218 L18.5111111,39.7086218 L17.2990741,39.7086218 L17.2990741,41.3677564 L18.5111111,41.3677564 L21.8166667,41.3677564 C22.3675926,41.3677564 22.9185185,41.8101923 22.9185185,42.4738462 C22.9185185,43.1375 22.4777778,43.5799359 21.8166667,43.5799359 L17.2990741,43.5799359 L17.2990741,43.8011538 L17.2990741,43.5799359 C17.0787037,43.3587179 12.6712963,43.6905449 10.7981481,43.248109 Z M17.2990741,44.9072436 L21.7064815,44.9072436 C23.2490741,44.9072436 24.4611111,43.6905449 24.4611111,42.1420192 C24.4611111,41.6995833 24.3509259,41.2571474 24.1305556,40.9253205 C25.2324074,40.5934936 26.1138889,39.5980128 26.1138889,38.2707051 C26.1138889,37.7176603 25.8935185,37.1646154 25.6731481,36.7221795 C26.4444444,36.2797436 26.9953704,35.3948718 26.9953704,34.399391 C26.9953704,34.0675641 26.8851852,33.6251282 26.775,33.2933013 L29.4194444,33.2933013 C30.962037,33.2933013 32.1740741,32.0766026 32.1740741,30.5280769 C32.1740741,28.9795513 30.962037,27.7628526 29.4194444,27.7628526 L20.2740741,27.7628526 C20.3842593,27.4310256 20.4944444,27.0991987 20.4944444,26.6567628 C20.4944444,25.1082372 19.2824074,23.8915385 17.7398148,23.8915385 L17.6296296,23.8915385 L16.5277778,23.8915385 L16.5277778,10.1760256 L61.0425926,10.1760256 L61.0425926,61.2773718 L16.5277778,61.2773718 L16.5277778,45.0178526 C16.8583333,45.0178526 17.1888889,45.0178526 17.2990741,44.9072436 Z M16.5277778,70.2366987 L16.5277778,62.9365064 L61.0425926,62.9365064 L61.0425926,70.2366987 L16.5277778,70.2366987 Z" id="Shape"></path>
            <polygon id="Shape" points="52.6685185 31.0811218 51.4564815 29.9750321 43.8537037 37.6070513 41.2092593 34.9524359 39.9972222 36.0585256 43.8537037 39.9298397"></polygon>
            <path d="M46.2777778,46.5663782 C52.8888889,46.5663782 58.1777778,41.2571474 58.1777778,34.620609 C58.1777778,27.9840705 52.8888889,22.6748397 46.2777778,22.6748397 C39.6666667,22.6748397 34.3777778,27.9840705 34.3777778,34.620609 C34.3777778,41.2571474 39.7768519,46.5663782 46.2777778,46.5663782 Z M46.2777778,24.3339744 C51.8972222,24.3339744 56.525,28.9795513 56.525,34.620609 C56.525,40.2616667 51.8972222,44.9072436 46.2777778,44.9072436 C40.6583333,44.9072436 36.0305556,40.2616667 36.0305556,34.620609 C36.0305556,28.9795513 40.6583333,24.3339744 46.2777778,24.3339744 Z" id="Shape"></path>
        </g>
    </g>
</svg>

<svg width="63" height="72" viewBox="0 0 63 72" xmlns="http://www.w3.org/2000/svg"><title>bullet-2</title><g id="Symbols" fill="none" fill-rule="evenodd"><g id="bullet-2" fill-rule="nonzero" fill="#FFF"><path d="M43.523 65.591h-9.476a.755.755 0 0 0-.771.774c0 .443.33.775.771.775h9.476c.44 0 .771-.332.771-.775a.755.755 0 0 0-.77-.774z" id="Shape"/><path id="Rectangle-path" d="M31.182 4.093h11.459v1.659H31.182zm13.333 0h1.653v1.659h-1.653z"/><path d="M14.875 0v24.223h-2.424c-1.873.111-3.636.996-4.738 2.544-.551.775-1.432 1.217-2.424 1.217h-.882l-.11-.11a2.028 2.028 0 0 0-1.763-.554c-.66 0-.881.111-1.212.111-.33 0-.44.11-1.322.11v1.66c.881 0 1.102 0 1.432-.11.22 0 .441-.111 1.102-.111.22 0 .441 0 .551.11.22.11.22.221.22.221v11.614c0 .11 0 .222-.11.222-.11.11-.33.22-.55.11-.772 0-.992-.11-.992-.11-.22-.111-.33-.111-1.543-.111v1.66h.882c.22.11.44.11 1.432.22h.11c.551 0 .992-.11 1.433-.442.33 0 1.432.11 1.983.442.22.11.33.222.55.332.882.553 1.764 1.106 3.747 1.549.882.22 2.204.22 3.416.22h.992v26.879h47.82V0h-47.6zm46.168 1.66v6.857H16.528V1.659h44.515zM10.798 43.247c-1.653-.332-2.534-.885-3.305-1.327-.22-.11-.331-.221-.551-.332-.661-.442-1.433-.553-1.984-.664v-11.17H5.4c1.543 0 2.865-.774 3.746-1.991.772-1.106 2.094-1.88 3.526-1.88h5.069a1.107 1.107 0 0 1 0 2.212h-2.975v1.659H29.31c.55 0 1.101.442 1.101 1.106 0 .553-.44 1.106-1.102 1.106H18.181v1.66h6.06a1.106 1.106 0 0 1 0 2.211h-5.73v1.66h4.958c.551 0 1.102.442 1.102 1.106 0 .553-.44 1.106-1.102 1.106H17.3v1.659h4.518c.55 0 1.102.442 1.102 1.106 0 .664-.441 1.106-1.102 1.106H17.3v.221-.221c-.22-.221-4.628.11-6.5-.332zm6.501 1.66h4.407a2.733 2.733 0 0 0 2.755-2.766c0-.442-.11-.885-.33-1.217 1.101-.332 1.983-1.327 1.983-2.654 0-.553-.22-1.106-.44-1.549a2.698 2.698 0 0 0 1.321-2.323c0-.331-.11-.774-.22-1.106h2.644a2.733 2.733 0 0 0 2.755-2.765 2.733 2.733 0 0 0-2.755-2.765h-9.145c.11-.332.22-.664.22-1.106a2.733 2.733 0 0 0-2.754-2.765h-1.212V10.176h44.515v51.101H16.528v-16.26c.33 0 .66 0 .771-.11zm-.771 25.329v-7.3h44.515v7.3H16.528z" id="Shape"/><path id="Shape" d="M52.669 31.081l-1.213-1.106-7.602 7.632-2.645-2.655-1.212 1.107 3.857 3.87z"/><path d="M46.278 46.566c6.61 0 11.9-5.309 11.9-11.945 0-6.637-5.29-11.946-11.9-11.946-6.611 0-11.9 5.31-11.9 11.946s5.399 11.945 11.9 11.945zm0-22.232c5.62 0 10.247 4.646 10.247 10.287 0 5.64-4.628 10.286-10.247 10.286-5.62 0-10.247-4.645-10.247-10.286s4.627-10.287 10.247-10.287z" id="Shape"/></g></g></svg>
